build/img/logo-text-bottom.svg

<svg width="105" height="10" viewBox="0 0 105 10" fill="none" xmlns="http://www.w3.org/2000/svg">
<path d="M2.94727 4.96094L4.23633 0.660156H5.75391L3.23438 7.96094C2.84766 9.02734 2.19141 9.56055 1.26562 9.56055C1.05859 9.56055 0.830078 9.52539 0.580078 9.45508V8.35352L0.849609 8.37109C1.20898 8.37109 1.47852 8.30469 1.6582 8.17188C1.8418 8.04297 1.98633 7.82422 2.0918 7.51562L2.29688 6.9707L0.0703125 0.660156H1.60547L2.94727 4.96094ZM10.3418 5.24805L12.2168 0.660156H13.998V7H12.5742V2.80469L10.8281 7H9.86133L8.10938 2.78125V7H6.68555V0.660156H8.47852L10.3418 5.24805ZM20.9707 7H19.5469V4.43945H17.0801V7H15.6562V0.660156H17.0801V3.30273H19.5469V0.660156H20.9707V7ZM24.0234 2.67578H25.418C25.9375 2.67578 26.3906 2.76562 26.7773 2.94531C27.1641 3.125 27.457 3.37695 27.6562 3.70117C27.8594 4.02539 27.9609 4.40234 27.9609 4.83203C27.9609 5.48438 27.7305 6.00781 27.2695 6.40234C26.8086 6.79688 26.1953 6.99609 25.4297 7H22.5996V0.660156H24.0234V2.67578ZM30.4395 7H29.0156V0.660156H30.4395V7ZM24.0234 3.81836V5.86328H25.4121C25.7598 5.86328 26.0332 5.77734 26.2324 5.60547C26.4355 5.42969 26.5371 5.18164 26.5371 4.86133C26.5371 4.54102 26.4375 4.28906 26.2383 4.10547C26.043 3.91797 25.7773 3.82227 25.4414 3.81836H24.0234ZM34.9395 7.11719C34.0371 7.11719 33.3047 6.83398 32.7422 6.26758C32.1836 5.69727 31.9043 4.93945 31.9043 3.99414V3.81836C31.9043 3.18555 32.0254 2.62109 32.2676 2.125C32.5137 1.625 32.8574 1.23633 33.2988 0.958984C33.7402 0.681641 34.2324 0.542969 34.7754 0.542969C35.6387 0.542969 36.3047 0.818359 36.7734 1.36914C37.2461 1.91992 37.4824 2.69922 37.4824 3.70703V4.28125H33.3398C33.3828 4.80469 33.5566 5.21875 33.8613 5.52344C34.1699 5.82812 34.5566 5.98047 35.0215 5.98047C35.6738 5.98047 36.2051 5.7168 36.6152 5.18945L37.3828 5.92188C37.1289 6.30078 36.7891 6.5957 36.3633 6.80664C35.9414 7.01367 35.4668 7.11719 34.9395 7.11719ZM34.7695 1.68555C34.3789 1.68555 34.0625 1.82227 33.8203 2.0957C33.582 2.36914 33.4297 2.75 33.3633 3.23828H36.0762V3.13281C36.0449 2.65625 35.918 2.29688 35.6953 2.05469C35.4727 1.80859 35.1641 1.68555 34.7695 1.68555ZM46.5703 1.79102H44.5137V7H43.0898V1.79102H41.0566V0.660156H46.5703V1.79102ZM49.9395 7.11719C49.0371 7.11719 48.3047 6.83398 47.7422 6.26758C47.1836 5.69727 46.9043 4.93945 46.9043 3.99414V3.81836C46.9043 3.18555 47.0254 2.62109 47.2676 2.125C47.5137 1.625 47.8574 1.23633 48.2988 0.958984C48.7402 0.681641 49.2324 0.542969 49.7754 0.542969C50.6387 0.542969 51.3047 0.818359 51.7734 1.36914C52.2461 1.91992 52.4824 2.69922 52.4824 3.70703V4.28125H48.3398C48.3828 4.80469 48.5566 5.21875 48.8613 5.52344C49.1699 5.82812 49.5566 5.98047 50.0215 5.98047C50.6738 5.98047 51.2051 5.7168 51.6152 5.18945L52.3828 5.92188C52.1289 6.30078 51.7891 6.5957 51.3633 6.80664C50.9414 7.01367 50.4668 7.11719 49.9395 7.11719ZM49.7695 1.68555C49.3789 1.68555 49.0625 1.82227 48.8203 2.0957C48.582 2.36914 48.4297 2.75 48.3633 3.23828H51.0762V3.13281C51.0449 2.65625 50.918 2.29688 50.6953 2.05469C50.4727 1.80859 50.1641 1.68555 49.7695 1.68555ZM55.8691 2.74609L57.0762 0.660156H58.6582L56.7188 3.7832L58.7227 7H57.1523L55.8867 4.83203L54.627 7H53.0449L55.0488 3.7832L53.1152 0.660156H54.6855L55.8691 2.74609ZM64.998 7H63.5742V4.43945H61.1074V7H59.6836V0.660156H61.1074V3.30273H63.5742V0.660156H64.998V7ZM66.252 3.77148C66.252 3.15039 66.375 2.5918 66.6211 2.0957C66.8672 1.5957 67.2129 1.21289 67.6582 0.947266C68.1035 0.677734 68.6152 0.542969 69.1934 0.542969C70.0488 0.542969 70.7422 0.818359 71.2734 1.36914C71.8086 1.91992 72.0977 2.65039 72.1406 3.56055L72.1465 3.89453C72.1465 4.51953 72.0254 5.07812 71.7832 5.57031C71.5449 6.0625 71.2012 6.44336 70.752 6.71289C70.3066 6.98242 69.791 7.11719 69.2051 7.11719C68.3105 7.11719 67.5938 6.82031 67.0547 6.22656C66.5195 5.62891 66.252 4.83398 66.252 3.8418V3.77148ZM67.6758 3.89453C67.6758 4.54688 67.8105 5.05859 68.0801 5.42969C68.3496 5.79688 68.7246 5.98047 69.2051 5.98047C69.6855 5.98047 70.0586 5.79297 70.3242 5.41797C70.5938 5.04297 70.7285 4.49414 70.7285 3.77148C70.7285 3.13086 70.5898 2.62305 70.3125 2.24805C70.0391 1.87305 69.666 1.68555 69.1934 1.68555C68.7285 1.68555 68.3594 1.87109 68.0859 2.24219C67.8125 2.60938 67.6758 3.16016 67.6758 3.89453ZM78.6445 0.660156V7H77.2207V1.80859H75.4277L75.3105 4.01758C75.2363 5.08008 75.0312 5.84375 74.6953 6.30859C74.3633 6.76953 73.8535 7 73.166 7H72.7266L72.7207 5.81641L73.0137 5.78711C73.3262 5.74414 73.5527 5.55469 73.6934 5.21875C73.8379 4.87891 73.9297 4.26172 73.9688 3.36719L74.0859 0.660156H78.6445ZM79.8926 3.77148C79.8926 3.15039 80.0156 2.5918 80.2617 2.0957C80.5078 1.5957 80.8535 1.21289 81.2988 0.947266C81.7441 0.677734 82.2559 0.542969 82.834 0.542969C83.6895 0.542969 84.3828 0.818359 84.9141 1.36914C85.4492 1.91992 85.7383 2.65039 85.7812 3.56055L85.7871 3.89453C85.7871 4.51953 85.666 5.07812 85.4238 5.57031C85.1855 6.0625 84.8418 6.44336 84.3926 6.71289C83.9473 6.98242 83.4316 7.11719 82.8457 7.11719C81.9512 7.11719 81.2344 6.82031 80.6953 6.22656C80.1602 5.62891 79.8926 4.83398 79.8926 3.8418V3.77148ZM81.3164 3.89453C81.3164 4.54688 81.4512 5.05859 81.7207 5.42969C81.9902 5.79688 82.3652 5.98047 82.8457 5.98047C83.3262 5.98047 83.6992 5.79297 83.9648 5.41797C84.2344 5.04297 84.3691 4.49414 84.3691 3.77148C84.3691 3.13086 84.2305 2.62305 83.9531 2.24805C83.6797 1.87305 83.3066 1.68555 82.834 1.68555C82.3691 1.68555 82 1.87109 81.7266 2.24219C81.4531 2.60938 81.3164 3.16016 81.3164 3.89453ZM91.2129 1.80859H88.459V7H87.041V0.660156H91.2129V1.80859ZM95.9766 0.660156H97.3945V7H95.9766V2.76953L93.4922 7H92.0742V0.660156H93.4922V4.89062L95.9766 0.660156ZM102.867 0.660156H104.285V7H102.867V2.76953L100.383 7H98.9648V0.660156H100.383V4.89062L102.867 0.660156Z" fill="#788891"/>
</svg>

<svg width="105" height="10" fill="none" xmlns="http://www.w3.org/2000/svg"><path d="M2.947 4.96l1.29-4.3h1.517l-2.52 7.3c-.386 1.067-1.043 1.6-1.968 1.6a2.55 2.55 0 01-.686-.105V8.354l.27.017c.359 0 .629-.066.808-.2.184-.128.328-.347.434-.655l.205-.545L.07.66h1.535l1.342 4.3zm7.395.288L12.217.66h1.781V7h-1.424V2.805L10.828 7h-.967L8.11 2.781V7H6.686V.66h1.793l1.863 4.588zM20.97 7h-1.424V4.44H17.08V7h-1.424V.66h1.424v2.643h2.467V.66h1.424V7zm3.052-4.324h1.395c.52 0 .973.09 1.36.27.386.179.679.43.878.755.203.324.305.701.305 1.131 0 .652-.23 1.176-.691 1.57-.461.395-1.075.594-1.84.598H22.6V.66h1.423v2.016zM30.44 7h-1.423V.66h1.424V7zm-6.416-3.182v2.045h1.39c.347 0 .62-.086.82-.258.203-.175.304-.423.304-.744 0-.32-.1-.572-.299-.756-.195-.187-.46-.283-.797-.287h-1.418zm10.917 3.3c-.903 0-1.635-.284-2.198-.85-.558-.57-.838-1.329-.838-2.274v-.176c0-.632.121-1.197.364-1.693.246-.5.59-.889 1.03-1.166a2.719 2.719 0 011.477-.416c.864 0 1.53.275 1.998.826.473.55.71 1.33.71 2.338v.574H33.34c.043.524.217.938.521 1.242.309.305.696.457 1.16.457.653 0 1.184-.263 1.594-.79l.768.732a2.58 2.58 0 01-1.02.885 3.19 3.19 0 01-1.423.31zm-.17-5.432c-.391 0-.708.136-.95.41-.238.273-.39.654-.457 1.142h2.713v-.105c-.031-.477-.158-.836-.38-1.078-.223-.246-.532-.37-.926-.37zm11.8.105h-2.056V7H43.09V1.791h-2.033V.661h5.513v1.13zm3.37 5.326c-.903 0-1.635-.283-2.198-.85-.558-.57-.838-1.328-.838-2.273v-.176c0-.632.121-1.197.364-1.693.246-.5.59-.889 1.03-1.166a2.719 2.719 0 011.477-.416c.864 0 1.53.275 1.998.826.473.55.71 1.33.71 2.338v.574H48.34c.043.524.217.938.521 1.242.309.305.696.457 1.16.457.653 0 1.184-.263 1.594-.79l.768.732a2.58 2.58 0 01-1.02.885 3.19 3.19 0 01-1.423.31zm-.17-5.431c-.391 0-.708.136-.95.41-.238.273-.39.654-.457 1.142h2.713v-.105c-.031-.477-.158-.836-.38-1.078-.223-.246-.532-.37-.926-.37zm6.1 1.06L57.075.66h1.582l-1.94 3.123L58.724 7h-1.57l-1.266-2.168L54.627 7h-1.582l2.004-3.217L53.115.66h1.57l1.184 2.086zM64.997 7h-1.424V4.44h-2.467V7h-1.423V.66h1.423v2.643h2.467V.66h1.424V7zm1.254-3.229c0-.62.123-1.18.37-1.675.245-.5.59-.883 1.036-1.149.445-.27.957-.404 1.535-.404.856 0 1.55.275 2.08.826.536.55.825 1.281.868 2.192l.005.334c0 .625-.12 1.183-.363 1.675a2.64 2.64 0 01-1.031 1.143c-.445.27-.961.404-1.547.404-.894 0-1.611-.297-2.15-.89-.536-.598-.803-1.393-.803-2.385v-.07zm1.424.124c0 .652.135 1.164.404 1.535.27.367.645.55 1.125.55s.854-.187 1.12-.562c.269-.375.403-.924.403-1.647 0-.64-.138-1.148-.415-1.523a1.311 1.311 0 00-1.12-.562c-.465 0-.834.185-1.107.556-.273.367-.41.918-.41 1.653zM78.644.66V7h-1.423V1.809h-1.793l-.117 2.209c-.075 1.062-.28 1.826-.616 2.29-.332.462-.841.692-1.529.692h-.44l-.005-1.184.293-.029c.312-.043.539-.232.68-.568.144-.34.236-.957.275-1.852L74.086.66h4.558zm1.249 3.111c0-.62.123-1.18.369-1.675.246-.5.591-.883 1.037-1.149.445-.27.957-.404 1.535-.404.855 0 1.549.275 2.08.826.535.55.824 1.281.867 2.192l.006.334c0 .625-.121 1.183-.363 1.675a2.64 2.64 0 01-1.031 1.143c-.446.27-.961.404-1.547.404-.895 0-1.612-.297-2.15-.89-.536-.598-.803-1.393-.803-2.385v-.07zm1.423.124c0 .652.135 1.164.405 1.535.27.367.644.55 1.125.55.48 0 .853-.187 1.119-.562.27-.375.404-.924.404-1.647 0-.64-.138-1.148-.416-1.523a1.311 1.311 0 00-1.119-.562c-.465 0-.834.185-1.107.556-.274.367-.41.918-.41 1.653zm9.897-2.086h-2.754V7h-1.418V.66h4.172v1.15zM95.977.66h1.417V7h-1.417V2.77L93.492 7h-1.418V.66h1.418v4.23L95.977.66zm6.89 0h1.418V7h-1.418V2.77L100.383 7h-1.418V.66h1.418v4.23l2.484-4.23z" fill="#788891"/></svg>
